X:12601
T:Ballydesmond Polkas No 1, The
R:Polka
B:Tuneworks Tunebook (https://www.tuneworks.co.uk/)
G:Tuneworks
Z:Jon Warbrick <jon.warbrick@googlemail.com>
M:2/4
L:1/8
K:G
|: "Am"EA AB | cd e2 | "G"G>F GA | GE ED | "Am"EA AB | cd ef | "G"g/f/e dB | "Am"A2 A2 :|
|: "Am"a>gab | ag ef | "G"g>f ga | ge ed | "Am"ea ab | ag ef | "G"g/f/e dB | "Am"A2 A2 :|
